source/img/icons/insta.svg

<svg width="15" height="15" viewBox="0 0 15 15" fill="none" xmlns="http://www.w3.org/2000/svg">
<path d="M11.0197 0H4.19806C2.14246 0 0.471191 1.66993 0.471191 3.72285V10.5499C0.471191 12.6082 2.14112 14.2727 4.19806 14.2727H11.0197C13.0753 14.2727 14.7466 12.6082 14.7466 10.5499V3.72285C14.7466 1.67127 13.0753 0 11.0197 0ZM11.0197 12.4849H4.19806C3.13076 12.4849 2.26432 11.6158 2.26432 10.5512V3.72419C2.26432 2.65956 3.13076 1.79715 4.19806 1.79715H11.0197C12.087 1.79715 12.9535 2.6609 12.9535 3.72419V10.5512C12.9535 11.6145 12.087 12.4849 11.0197 12.4849Z" fill="currentColor"/>
<path d="M7.60887 3.11084C5.38989 3.11084 3.58203 4.9187 3.58203 7.14036C3.58203 9.35532 5.38989 11.1645 7.60887 11.1645C9.83053 11.1645 11.6357 9.35666 11.6357 7.14036C11.6357 4.9187 9.83053 3.11084 7.60887 3.11084ZM7.60887 9.36871C6.37551 9.36871 5.37784 8.37372 5.37784 7.14036C5.37784 5.90699 6.37551 4.90665 7.60887 4.90665C8.83822 4.90665 9.84259 5.90833 9.84259 7.14036C9.84392 8.37238 8.83822 9.36871 7.60887 9.36871Z" fill="currentColor"/>
<path d="M11.3573 2.35962C10.8256 2.35962 10.3931 2.79752 10.3931 3.32381C10.3931 3.85546 10.8256 4.29336 11.3573 4.29336C11.8862 4.29336 12.3215 3.85546 12.3215 3.32381C12.3215 2.79752 11.8862 2.35962 11.3573 2.35962Z" fill="currentColor"/>
</svg>

<svg width="15" height="15" fill="none" xmlns="http://www.w3.org/2000/svg"><path d="M11.02 0H4.198A3.729 3.729 0 00.471 3.723v6.827a3.724 3.724 0 003.727 3.723h6.822a3.725 3.725 0 003.727-3.723V3.723A3.73 3.73 0 0011.02 0zm0 12.485H4.198a1.936 1.936 0 01-1.934-1.934V3.724a1.93 1.93 0 011.934-1.927h6.822c1.067 0 1.934.864 1.934 1.927v6.827a1.937 1.937 0 01-1.934 1.934z" fill="currentColor"/><path d="M7.609 3.11a4.034 4.034 0 00-4.027 4.03 4.034 4.034 0 004.027 4.025 4.03 4.03 0 004.027-4.025 4.032 4.032 0 00-4.027-4.03zm0 6.259a2.232 2.232 0 11.001-4.46 2.232 2.232 0 01-.001 4.46z" fill="currentColor"/><path d="M11.357 2.36a.969.969 0 00-.964.964c0 .531.433.97.964.97a.972.972 0 00.965-.97.97.97 0 00-.965-.964z" fill="currentColor"/></svg>
